X:1
T:Consolation (Cramer), 78.78.77
T:Francis Cramer, 1879
T:Consolation (Cramer), 78.78.77
T:Public Domain
C:Francis Cramer, 1879
Z:Public Domain
%%score ( 1 2 ) ( 3 4 )
L:1/8
M:4/4
K:Ab
V:1 treble 
V:2 treble 
V:3 bass 
V:4 bass 
V:1
 [Ec]2 [CA]2 [DB]2 [DF]2 | [DE]2 [EB]2 [Ed]4 | [Ec]2 [=Ec]2 [Fc]2 (=ed) | [Dc]2 [DA]2 [DB]2 [Cc]2 | %4
 [Ec]2 [=EB]2 [FA]2 [F=A]2 | [FB]3 F F4 | [DG]3 [DG] [DF]2 [DE]2 | [DB]2 [Dc]2 [DB]2 [CA]2 | %8
 [=DA]3 [DA] [DG]2 [DF]2 | [DB]2 [DG]2 F2 E2 | C2 z c [De]2 dc | [DB]2 (ED) [CA]4 |] %12
V:2
 x8 | x8 | x6 F2 | x8 | x8 | x3 F F4 | x8 | x8 | x8 | x4 D4 | c3 (E2 x F2) | x2 c2 x4 |] %12
V:3
 [A,,A,]2 [A,,E,]2 [A,,F,]2 [A,,B,]2 | [E,G,]2 (F,G,) [A,,A,]4 | [A,C]2 [G,B,]2 [F,=A,]2 [D,B,]2 | %3
 [E,G,]2 [E,F,]2 [E,G,]2 A,2 | [A,C]2 [G,C]2 [F,C]2 [E,C]2 | [D,B,]3 [D,B,] [D,B,]4 | %6
 [E,B,]3 [E,B,] [E,A,]2 [E,G,]2 | [E,G,]2 [E,F,]2 [E,G,]2 [A,,A,]2 | %8
 [B,,F,]3 [B,,F,] [B,,B,]2 [B,,A,]2 | [E,G,]2 [E,B,]2 A,2 G,2 | E,2 z =A,, [B,,F,]2 [D,F,]2 | %11
 [E,G,]2 (F,G,) [A,,A,]4 |] %12
V:4
 x8 | x2 E,2 x4 | x8 | x6 A,2 | x8 | x8 | x8 | x8 | x8 | x4 E,4 | =A,,3 _G,2 x3 | x2 E,2 x4 |] %12

